X: 08010
T: BAUHAN'S PUB
C: Bob McQuillen 3 Mar 91
B: Bob's Note Book 8 #10
%R: reel
Z: 2021 John Chambers <jc:trillian.mit.edu>
M: C
L: 1/8
K: D
AG \
| FABA GBAG | FAdc d2fd | edcd fdcd | gfed cBAG |\
| FABA GBAG | FAdc defd |Adfa gecd | e2d2 d2 :|
|: fg \
| afbf afdB | AFBF A2AG | FAdf Adfa | gfed cAfg |\
| afbf afdB | AFBF Adfa | gfge ceag | f2d2 d2 :|
%%begintext align
%% This little ditty
%% is for William Bauhan (pr. BOW-AN) of Dublin, N.H.
%% He is my friend Sarah's dad, and is the proprietor
%% of _Bauhan_ _Pub_lishing Co. of Dublin, N.H. 603-536-8080.
%% Tell him Mac sent you! (No, this is _not_ a paid commercial!)
%%endtext

%%sep 1 1 500

%%sep 1 1 500

